src/IMAGE/defaultImage.svg

<svg width="440" height="380" viewBox="0 0 440 380" fill="none" xmlns="http://www.w3.org/2000/svg">
<rect width="440" height="380" fill="#2C2C2C"/>
<g opacity="0.6">
<path d="M210.501 180.91L206.368 186.303C205.897 186.91 205.864 187.771 206.351 188.361C207.09 189.254 208.455 189.18 209.104 188.328L211.411 185.328C211.784 184.844 211.784 184.18 211.411 183.697L210.623 182.672C210.217 182.148 210.193 181.459 210.501 180.918V180.91Z" fill="#F8F7F5"/>
<path d="M225.711 180.91L221.578 186.303C221.107 186.91 221.074 187.771 221.561 188.361C222.3 189.254 223.665 189.18 224.314 188.328L226.621 185.328C226.994 184.844 226.994 184.18 226.621 183.697L225.833 182.672C225.427 182.148 225.402 181.459 225.711 180.918V180.91Z" fill="#F8F7F5"/>
<path d="M226.272 177.779L218.573 188.295C218.224 188.77 217.672 189.016 217.128 189C216.592 189.008 216.056 188.762 215.715 188.295L212.848 184.377L211.435 182.451C211.029 181.893 211.013 181.172 211.314 180.607C211.427 180.385 211.59 180.189 211.801 180.033C212.556 179.467 213.628 179.631 214.188 180.393L217.128 184.402L223.494 175.705C223.827 175.246 224.355 175 224.883 175C225.24 175 225.598 175.107 225.906 175.336C226.67 175.91 226.84 177.008 226.272 177.779Z" fill="#F8F7F5"/>
<path d="M233.312 188.664C232.557 189.221 231.477 189.066 230.917 188.295L228.05 184.377L226.637 182.451C226.231 181.893 226.215 181.172 226.515 180.607C226.629 180.385 226.791 180.189 226.994 180.033C227.758 179.467 228.83 179.631 229.39 180.393L233.669 186.246C234.23 187.008 234.067 188.098 233.312 188.664Z" fill="#F8F7F5"/>
<path d="M176.377 198.707C176.299 198.014 175.664 197.613 174.814 197.613C173.877 197.613 173.262 198.102 173.262 198.775C173.262 199.518 174.092 199.791 174.629 199.928L175.332 200.123C176.094 200.318 177.334 200.758 177.334 202.076C177.334 203.229 176.406 204.127 174.766 204.127C173.242 204.127 172.295 203.336 172.217 202.164H173.115C173.193 202.955 173.926 203.326 174.766 203.326C175.742 203.326 176.475 202.828 176.475 202.057C176.475 201.373 175.82 201.109 175.078 200.895L174.209 200.66C173.096 200.338 172.412 199.771 172.412 198.814C172.412 197.623 173.477 196.832 174.844 196.832C176.211 196.832 177.197 197.633 177.236 198.707H176.377ZM181.094 204V196.93H185.381V197.711H181.973V200.074H185.156V200.846H181.973V203.219H185.43V204H181.094ZM195.244 200.465C195.244 202.701 193.926 204.098 192.119 204.098C190.303 204.098 188.994 202.701 188.994 200.465C188.994 198.229 190.303 196.832 192.119 196.832C193.926 196.832 195.244 198.229 195.244 200.465ZM194.395 200.465C194.395 198.639 193.398 197.652 192.119 197.652C190.84 197.652 189.844 198.639 189.844 200.465C189.844 202.291 190.84 203.277 192.119 203.277C193.398 203.277 194.395 202.291 194.395 200.465ZM202.891 198.707C202.812 198.014 202.178 197.613 201.328 197.613C200.391 197.613 199.775 198.102 199.775 198.775C199.775 199.518 200.605 199.791 201.143 199.928L201.846 200.123C202.607 200.318 203.848 200.758 203.848 202.076C203.848 203.229 202.92 204.127 201.279 204.127C199.756 204.127 198.809 203.336 198.73 202.164H199.629C199.707 202.955 200.439 203.326 201.279 203.326C202.256 203.326 202.988 202.828 202.988 202.057C202.988 201.373 202.334 201.109 201.592 200.895L200.723 200.66C199.609 200.338 198.926 199.771 198.926 198.814C198.926 197.623 199.99 196.832 201.357 196.832C202.725 196.832 203.711 197.633 203.75 198.707H202.891ZM207.91 204H206.992L209.58 196.93H210.508L213.096 204H212.168L211.465 202.008H208.623L207.91 204ZM208.887 201.236H211.191L210.068 198.072H210.01L208.887 201.236ZM222.168 196.93V204H221.328L217.5 198.492H217.432V204H216.553V196.93H217.402L221.23 202.447H221.299V196.93H222.168ZM231.055 199.156C230.85 198.18 230.01 197.652 229.082 197.652C227.803 197.652 226.807 198.639 226.807 200.465C226.807 202.291 227.803 203.277 229.082 203.277C230.01 203.277 230.84 202.75 231.055 201.783H231.934C231.68 203.229 230.518 204.098 229.082 204.098C227.266 204.098 225.957 202.701 225.957 200.465C225.957 198.229 227.266 196.832 229.082 196.832C230.508 196.832 231.67 197.691 231.934 199.156H231.055ZM235.664 204V196.93H236.543V200.074H240.283V196.93H241.172V204H240.283V200.846H236.543V204H235.664ZM245.225 204V196.93H249.512V197.711H246.104V200.074H249.287V200.846H246.104V203.219H249.561V204H245.225ZM258.223 199.156C258.018 198.18 257.178 197.652 256.25 197.652C254.971 197.652 253.975 198.639 253.975 200.465C253.975 202.291 254.971 203.277 256.25 203.277C257.178 203.277 258.008 202.75 258.223 201.783H259.102C258.848 203.229 257.686 204.098 256.25 204.098C254.434 204.098 253.125 202.701 253.125 200.465C253.125 198.229 254.434 196.832 256.25 196.832C257.676 196.832 258.838 197.691 259.102 199.156H258.223ZM262.832 204V196.93H263.711V200.426H263.799L266.943 196.93H268.096L265.137 200.123L268.096 204H267.021L264.59 200.729L263.711 201.725V204H262.832Z" fill="#F8F7F5"/>
</g>
</svg>

<svg xmlns="http://www.w3.org/2000/svg" fill="none" viewBox="0 0 440 380"><path fill="#2c2c2c" d="M0 0h440v380H0z"/><path fill="#f8f7f5" d="m210.5 180.91-4.13 5.4c-.47.6-.5 1.46-.02 2.05.74.9 2.1.82 2.75-.03l2.31-3c.37-.49.37-1.15 0-1.63l-.79-1.03a1.6 1.6 0 0 1-.12-1.75zm15.21 0-4.13 5.4c-.47.6-.5 1.46-.02 2.05.74.9 2.1.82 2.75-.03l2.31-3c.37-.49.37-1.15 0-1.63l-.79-1.03a1.6 1.6 0 0 1-.12-1.75zm.56-3.13-7.7 10.51c-.35.48-.9.73-1.44.71-.54 0-1.07-.24-1.41-.7l-2.87-3.92-1.41-1.93a1.74 1.74 0 0 1 .36-2.42 1.7 1.7 0 0 1 2.39.36l2.94 4.01 6.36-8.7a1.7 1.7 0 0 1 2.42-.36c.76.57.93 1.67.36 2.44m7.04 10.88c-.75.56-1.83.4-2.4-.37l-2.86-3.91-1.41-1.93a1.75 1.75 0 0 1 .35-2.42 1.7 1.7 0 0 1 2.4.36l4.28 5.86c.56.76.4 1.85-.36 2.41m-56.93 10.04c-.08-.69-.72-1.09-1.57-1.09-.93 0-1.55.5-1.55 1.16 0 .75.83 1.02 1.37 1.16l.7.2c.76.19 2 .63 2 1.95 0 1.15-.92 2.05-2.56 2.05-1.53 0-2.48-.8-2.55-1.97h.9c.07.8.8 1.17 1.65 1.17.97 0 1.7-.5 1.7-1.27 0-.69-.65-.95-1.4-1.16l-.86-.24c-1.11-.32-1.8-.89-1.8-1.85 0-1.19 1.07-1.98 2.43-1.98 1.37 0 2.36.8 2.4 1.88zm4.71 5.3v-7.07h4.3v.78h-3.42v2.36h3.19v.78h-3.19v2.37h3.46v.78zm14.15-3.53c0 2.23-1.31 3.63-3.12 3.63-1.82 0-3.13-1.4-3.13-3.63 0-2.24 1.31-3.64 3.13-3.64 1.8 0 3.12 1.4 3.12 3.63m-.84 0c0-1.83-1-2.82-2.28-2.82s-2.28.99-2.28 2.81c0 1.83 1 2.82 2.28 2.82s2.28-.99 2.28-2.81m8.5-1.76c-.09-.7-.72-1.1-1.57-1.1-.94 0-1.56.5-1.56 1.16 0 .75.83 1.02 1.37 1.16l.7.2c.77.19 2 .63 2 1.95 0 1.15-.92 2.05-2.56 2.05-1.52 0-2.47-.8-2.55-1.97h.9c.08.8.8 1.17 1.65 1.17.98 0 1.7-.5 1.7-1.27 0-.69-.65-.95-1.39-1.16l-.87-.24c-1.11-.32-1.8-.89-1.8-1.85 0-1.19 1.07-1.98 2.44-1.98s2.35.8 2.39 1.88zm5.01 5.29h-.92l2.59-7.07h.93l2.59 7.07h-.93l-.7-2h-2.85zm.98-2.76h2.3l-1.12-3.17H210zm13.28-4.31V204h-.84l-3.83-5.5h-.07v5.5h-.88v-7.07h.85l3.83 5.52h.07v-5.52zm8.89 2.23c-.21-.98-1.05-1.5-1.98-1.5-1.28 0-2.27.98-2.27 2.8 0 1.83 1 2.82 2.27 2.82.93 0 1.76-.53 1.97-1.5h.88c-.25 1.45-1.41 2.32-2.85 2.32-1.81 0-3.12-1.4-3.12-3.63 0-2.24 1.3-3.64 3.12-3.64 1.43 0 2.59.86 2.85 2.33zm4.6 4.84v-7.07h.88v3.14h3.74v-3.14h.9V204h-.9v-3.15h-3.74V204zm9.56 0v-7.07h4.3v.78h-3.42v2.36h3.19v.78h-3.19v2.37h3.46v.78zm13-4.84c-.2-.98-1.04-1.5-1.97-1.5-1.28 0-2.28.98-2.28 2.8 0 1.83 1 2.82 2.28 2.82.93 0 1.76-.53 1.97-1.5h.88c-.25 1.45-1.41 2.32-2.85 2.32-1.82 0-3.12-1.4-3.12-3.63 0-2.24 1.3-3.64 3.12-3.64 1.43 0 2.59.86 2.85 2.33zm4.61 4.84v-7.07h.88v3.5h.09l3.14-3.5h1.16l-2.96 3.2 2.96 3.87h-1.08l-2.43-3.27-.88 1V204z" opacity=".6"/></svg>
